X:58
T:Lei jardiniero
O:France
A:Provence
C:Trad.
R:Danse trad.
S:Carnet du tambourinaire Ginas (1924)
Z:Transcrit et/ou corrig? par Michel BELLON - 2005-03-06
Z:Pour toute observation mailto:galouvielle@free.fr
M:C
L:1/8
K:Bb
F |B3B BcdB |f4- ff=e_e | d2f2d2B2 | f6 F2 |e3e dddd | c3A FFGA | B2f2d2B2 | f6 F2 |
e3e dddd | c3A FFGA | B2f2d2B2 | f4- ff=e_e | d2d2 c2de | d2d2 c2de | d2d2 GABG |
F3F A3A | B2c2 Bcde | f2e2d2c2 | B4B2 z!fine! |]
<end>
<start>
